assets/images/benefit_1.svg

<svg width="51" height="58" viewBox="0 0 51 58" fill="none" xmlns="http://www.w3.org/2000/svg">
<path d="M39.2311 57.7551C38.7954 57.665 38.3597 57.5899 37.924 57.4847C35.7456 56.9439 33.9278 55.8171 32.5006 54.0894C32.2602 53.7889 32.0048 53.6988 31.6442 53.6988C22.3447 53.7138 13.0452 53.6988 3.74572 53.6988C1.46216 53.7138 0.200195 52.4519 0.200195 50.1683C0.200195 36.6322 0.200195 23.1111 0.200195 9.575C0.200195 7.29144 1.46216 6.02948 3.74572 6.02948C5.96919 6.02948 8.20768 6.02948 10.4311 6.02948C10.6265 6.02948 10.8368 6.02948 11.1072 6.02948C11.1072 5.39849 11.1072 4.79755 11.1072 4.21164C11.1222 3.44545 11.4377 3.11493 12.2039 3.11493C13.4208 3.11493 14.6377 3.09991 15.8546 3.11493C16.1851 3.11493 16.3354 3.00977 16.5006 2.72432C17.402 1.05672 18.8142 0.185363 20.7072 0.200386C22.5701 0.200386 23.9673 1.07174 24.8536 2.72432C25.0189 3.03981 25.2142 3.12995 25.5447 3.12995C26.7466 3.11493 27.9485 3.11493 29.1503 3.12995C29.9165 3.12995 30.232 3.44545 30.247 4.22666C30.247 4.81258 30.247 5.38347 30.247 6.05952C30.4724 6.05952 30.6677 6.05952 30.863 6.05952C33.1616 6.05952 35.4752 6.05952 37.7738 6.05952C39.832 6.05952 41.1541 7.36656 41.1541 9.42477C41.1541 18.5891 41.1541 27.7533 41.1541 36.9176C41.1541 37.143 41.1541 37.3683 41.1541 37.4735C42.371 37.8791 43.5728 38.1345 44.6545 38.6453C48.6658 40.5233 50.9193 44.8801 50.2432 49.2669C49.5672 53.6237 46.0667 57.0791 41.6799 57.695C41.5747 57.7101 41.4695 57.7701 41.3794 57.8002C40.6583 57.7551 39.9372 57.7551 39.2311 57.7551ZM11.1072 7.81726C8.55322 7.81726 6.07435 7.81726 3.59549 7.81726C2.49878 7.81726 1.98798 8.32806 1.98798 9.45482C1.98798 23.066 1.98798 36.6773 1.98798 50.2885C1.98798 51.4152 2.49878 51.926 3.64056 51.926C12.5795 51.926 21.5335 51.926 30.4724 51.926C30.6527 51.926 30.8179 51.911 31.0433 51.896C29.7212 48.681 29.7963 45.5711 31.5391 42.6115C33.2668 39.6519 35.9409 38.0594 39.3362 37.6087C39.3362 37.3533 39.3362 37.128 39.3362 36.9026C39.3362 30.3975 39.3362 23.8923 39.3362 17.3872C39.3362 14.713 39.3362 12.0238 39.3362 9.34965C39.3362 8.43322 38.8254 7.86233 37.9541 7.84731C35.4452 7.83229 32.9362 7.84731 30.4123 7.84731C30.3672 7.84731 30.3071 7.87736 30.217 7.9074C30.217 8.49332 30.217 9.09425 30.217 9.69519C30.202 10.4313 29.8865 10.7619 29.1503 10.7619C23.4865 10.7619 17.8227 10.7619 12.1588 10.7619C11.4227 10.7619 11.1072 10.4313 11.0922 9.69519C11.1072 9.07923 11.1072 8.47829 11.1072 7.81726ZM40.2677 39.3815C35.6855 39.3815 31.9597 43.0923 31.9597 47.6594C31.9597 52.2265 35.6855 55.9673 40.2526 55.9673C44.8198 55.9673 48.5606 52.2415 48.5606 47.6894C48.5606 43.1073 44.8498 39.3815 40.2677 39.3815ZM28.4142 4.90272C27.1372 4.90272 25.8903 4.90272 24.6583 4.90272C23.9222 4.90272 23.7119 4.75248 23.4715 4.04638C23.141 3.05484 22.4799 2.37878 21.4734 2.09334C19.926 1.65766 18.3936 2.48395 17.8828 4.06141C17.6875 4.66234 17.3569 4.93277 16.741 4.90272C16.2302 4.88769 15.7344 4.90272 15.2236 4.90272C14.4574 4.90272 13.7063 4.90272 12.9401 4.90272C12.9401 6.28487 12.9401 7.59191 12.9401 8.91397C18.1081 8.91397 23.2461 8.91397 28.4142 8.91397C28.4142 7.57689 28.4142 6.26985 28.4142 4.90272Z" fill="#202020"/>
<path d="M7.5018 19.2803C7.5018 18.454 7.5018 17.6277 7.5018 16.8014C7.5018 16.0803 7.81729 15.7648 8.5234 15.7498C10.206 15.7348 11.9037 15.7348 13.5863 15.7498C14.2623 15.7498 14.5778 16.0953 14.5929 16.7714C14.6079 18.454 14.6079 20.1366 14.5929 21.8343C14.5929 22.4653 14.2623 22.8258 13.6163 22.8258C11.9187 22.8408 10.206 22.8408 8.50837 22.8258C7.83232 22.8108 7.51683 22.4803 7.51683 21.8042C7.48678 20.9629 7.5018 20.1216 7.5018 19.2803ZM12.745 17.5977C11.5882 17.5977 10.4614 17.5977 9.31964 17.5977C9.31964 18.7545 9.31964 19.8662 9.31964 20.993C10.4764 20.993 11.6182 20.993 12.745 20.993C12.745 19.8512 12.745 18.7395 12.745 17.5977Z" fill="#202020"/>
<path d="M7.50179 31.3439C7.50179 30.5026 7.50179 29.6613 7.50179 28.82C7.50179 28.1439 7.81729 27.8134 8.49334 27.7984C10.176 27.7834 11.8736 27.7834 13.5562 27.7984C14.2623 27.7984 14.5778 28.1289 14.5929 28.85C14.6079 30.5176 14.6079 32.1852 14.5929 33.8528C14.5929 34.5138 14.2623 34.8744 13.5863 34.8744C11.9037 34.8894 10.206 34.8894 8.52339 34.8744C7.81729 34.8594 7.51682 34.5289 7.50179 33.8228C7.48677 32.9965 7.50179 32.1702 7.50179 31.3439ZM12.745 29.6312C11.5882 29.6312 10.4614 29.6312 9.31963 29.6312C9.31963 30.788 9.31963 31.8998 9.31963 33.0265C10.4764 33.0265 11.6182 33.0265 12.745 33.0265C12.745 31.8847 12.745 30.773 12.745 29.6312Z" fill="#202020"/>
<path d="M7.50179 43.3777C7.50179 42.5364 7.50179 41.6951 7.50179 40.8538C7.51682 40.1777 7.81729 39.8472 8.49334 39.8472C10.176 39.8322 11.8736 39.8322 13.5562 39.8472C14.2623 39.8472 14.5778 40.1927 14.5778 40.8988C14.5929 42.5514 14.5929 44.189 14.5778 45.8416C14.5778 46.5777 14.2473 46.9082 13.5112 46.9232C11.8586 46.9383 10.206 46.9383 8.56846 46.9232C7.78724 46.9232 7.50179 46.5927 7.50179 45.7965C7.48677 44.9852 7.50179 44.174 7.50179 43.3777ZM12.745 45.0754C12.745 43.8885 12.745 42.7768 12.745 41.65C11.5882 41.65 10.4764 41.65 9.33465 41.65C9.33465 42.8068 9.33465 43.9336 9.33465 45.0754C10.4915 45.0754 11.6032 45.0754 12.745 45.0754Z" fill="#202020"/>
<path d="M26.2513 15.7645C28.3996 15.7645 30.563 15.7495 32.7113 15.7795C33.0418 15.7795 33.4625 15.9298 33.6879 16.1701C34.0935 16.6058 33.808 17.342 33.2071 17.5072C32.9818 17.5673 32.7264 17.5673 32.486 17.5673C28.3245 17.5673 24.163 17.5673 20.0015 17.5673C19.7912 17.5673 19.5809 17.5673 19.3856 17.5373C18.8898 17.4471 18.6194 17.1316 18.6344 16.6359C18.6494 16.1401 18.9349 15.8246 19.4306 15.7945C19.9264 15.7645 20.4372 15.7795 20.948 15.7795C22.7208 15.7495 24.4935 15.7645 26.2513 15.7645Z" fill="#202020"/>
<path d="M26.2356 21.0378C28.3389 21.0378 30.4272 21.0378 32.5305 21.0378C32.7107 21.0378 32.906 21.0378 33.0863 21.0529C33.552 21.128 33.8225 21.3984 33.8525 21.8792C33.8675 22.3749 33.6121 22.6904 33.1164 22.7956C32.9361 22.8256 32.7408 22.8407 32.5605 22.8407C28.3389 22.8407 24.1324 22.8407 19.9108 22.8407C19.7756 22.8407 19.6404 22.8407 19.5202 22.8256C18.9643 22.7655 18.6338 22.42 18.6338 21.9242C18.6338 21.4284 18.9944 21.0829 19.5352 21.0529C19.7005 21.0378 19.8657 21.0529 20.046 21.0529C22.1042 21.0378 24.1774 21.0378 26.2356 21.0378Z" fill="#202020"/>
<path d="M26.2661 27.7982C28.3393 27.7982 30.4276 27.7982 32.5008 27.7982C32.6811 27.7982 32.8764 27.7832 33.0567 27.8132C33.5524 27.8733 33.8379 28.1738 33.8379 28.6695C33.8529 29.1653 33.5675 29.4808 33.0717 29.5559C32.8914 29.586 32.6961 29.586 32.5158 29.586C28.3393 29.586 24.1628 29.586 19.9863 29.586C19.0548 29.586 18.6342 29.3005 18.6342 28.6996C18.6192 28.0836 19.0398 27.7982 19.9562 27.7982C22.0595 27.7982 24.1628 27.7982 26.2661 27.7982Z" fill="#202020"/>
<path d="M26.2957 33.0868C28.4441 33.0868 30.6075 33.0868 32.7558 33.0868C33.4469 33.0868 33.8074 33.3572 33.8525 33.883C33.8826 34.3788 33.6722 34.7093 33.1765 34.8295C32.9812 34.8746 32.7708 34.8746 32.5605 34.8746C28.369 34.8746 24.1624 34.8746 19.9709 34.8746C19.8056 34.8746 19.6253 34.8746 19.4601 34.8445C18.9493 34.7694 18.6338 34.4239 18.6338 33.9431C18.6488 33.4624 18.9793 33.1168 19.4901 33.0718C19.8206 33.0417 20.1662 33.0567 20.4967 33.0567C22.4347 33.0718 24.3577 33.0868 26.2957 33.0868Z" fill="#202020"/>
<path d="M23.4869 39.8321C24.7037 39.8321 25.9206 39.8321 27.1375 39.8321C27.8587 39.8321 28.2493 40.1626 28.2343 40.7335C28.2192 41.2894 27.8587 41.6199 27.1676 41.6199C24.6737 41.6349 22.1798 41.6199 19.6859 41.6199C19.2202 41.6199 18.8296 41.4546 18.6794 40.9739C18.5592 40.5833 18.6643 40.2077 19.0249 39.9974C19.2352 39.8772 19.5207 39.8321 19.7761 39.8321C21.008 39.8171 22.2399 39.8321 23.4869 39.8321Z" fill="#202020"/>
<path d="M23.4562 45.1204C24.6881 45.1204 25.9351 45.1204 27.167 45.1204C27.8581 45.1204 28.2336 45.4359 28.2487 45.9918C28.2637 46.5477 27.8881 46.9082 27.2121 46.9082C24.7031 46.9233 22.1942 46.9233 19.6853 46.9082C19.0243 46.9082 18.6337 46.5176 18.6637 45.9768C18.6787 45.451 19.0543 45.1355 19.7003 45.1204C20.9323 45.1054 22.1942 45.1204 23.4562 45.1204Z" fill="#202020"/>
<path d="M38.8256 49.4171C40.2228 48.065 41.5749 46.743 42.927 45.4209C43.3927 44.9552 43.8434 44.4895 44.3091 44.0237C44.7598 43.5881 45.2706 43.558 45.6462 43.9186C46.0218 44.2791 46.0218 44.835 45.5861 45.2707C43.603 47.2838 41.6049 49.297 39.6218 51.2951C39.1411 51.7758 38.6754 51.7758 38.1946 51.3101C37.0979 50.2284 36.0162 49.1467 34.9345 48.05C34.4988 47.6143 34.4838 47.0735 34.8594 46.6979C35.235 46.3223 35.7608 46.3524 36.2115 46.788C37.0979 47.6895 37.9693 48.5758 38.8256 49.4171Z" fill="#202020"/>
</svg>

<svg width="51" height="58" fill="none" xmlns="http://www.w3.org/2000/svg"><path d="M39.231 57.755c-.436-.09-.871-.165-1.307-.27-2.178-.541-3.996-1.668-5.423-3.396-.24-.3-.496-.39-.857-.39-9.3.015-18.599 0-27.898 0C1.462 53.714.2 52.452.2 50.169V9.574c0-2.284 1.262-3.546 3.546-3.546h7.361V4.212c.015-.767.33-1.097 1.097-1.097 1.217 0 2.434-.015 3.65 0 .331 0 .481-.105.647-.39.901-1.668 2.313-2.54 4.206-2.525 1.863 0 3.26.872 4.147 2.524.165.316.36.406.69.406 1.203-.015 2.404-.015 3.606 0 .767 0 1.082.315 1.097 1.097V6.06h7.526c2.059 0 3.381 1.307 3.381 3.365v28.049c1.217.405 2.419.66 3.5 1.171 4.012 1.878 6.265 6.235 5.59 10.622-.677 4.357-4.177 7.812-8.564 8.428-.105.015-.21.075-.3.105-.722-.045-1.443-.045-2.149-.045ZM11.107 7.817H3.595c-1.096 0-1.607.511-1.607 1.638v40.834c0 1.126.51 1.637 1.653 1.637h26.831c.18 0 .346-.015.571-.03-1.322-3.215-1.247-6.325.496-9.285 1.728-2.96 4.402-4.552 7.797-5.002V9.35c0-.917-.51-1.488-1.382-1.503-2.509-.015-5.018 0-7.542 0-.045 0-.105.03-.195.06v1.788c-.015.736-.33 1.067-1.067 1.067H12.16c-.736 0-1.052-.33-1.067-1.067.015-.616.015-1.217.015-1.878Zm29.16 31.565c-4.582 0-8.307 3.71-8.307 8.277 0 4.568 3.725 8.308 8.293 8.308 4.567 0 8.308-3.725 8.308-8.278 0-4.582-3.711-8.307-8.293-8.307ZM28.415 4.902h-3.756c-.736 0-.946-.15-1.187-.856-.33-.991-.991-1.667-1.998-1.953-1.547-.435-3.08.391-3.59 1.968-.195.601-.526.872-1.142.842-.51-.015-1.007 0-1.517 0H12.94v4.011h15.474V4.903Z" fill="#202020"/><path d="M7.502 19.28v-2.479c0-.72.315-1.036 1.021-1.051 1.683-.015 3.38-.015 5.063 0 .676 0 .992.345 1.007 1.021.015 1.683.015 3.366 0 5.063 0 .631-.33.992-.977.992-1.697.015-3.41.015-5.108 0-.676-.015-.991-.346-.991-1.022-.03-.841-.015-1.682-.015-2.524Zm5.243-1.682H9.32v3.395h3.425v-3.395ZM7.502 31.344V28.82c0-.676.315-1.007.991-1.022 1.683-.015 3.38-.015 5.063 0 .706 0 1.022.33 1.037 1.052.015 1.668.015 3.335 0 5.003 0 .66-.33 1.021-1.007 1.021-1.682.015-3.38.015-5.063 0-.706-.015-1.006-.345-1.021-1.051-.015-.827 0-1.653 0-2.48Zm5.243-1.713H9.32v3.395h3.425v-3.395ZM7.502 43.378v-2.524c.015-.676.315-1.007.991-1.007 1.683-.015 3.38-.015 5.063 0 .706 0 1.022.346 1.022 1.052.015 1.652.015 3.29 0 4.943 0 .736-.33 1.066-1.067 1.081-1.652.015-3.305.015-4.943 0-.78 0-1.066-.33-1.066-1.127-.015-.81 0-1.622 0-2.418Zm5.243 1.697V41.65h-3.41v3.425h3.41ZM26.251 15.764c2.149 0 4.312-.014 6.46.016.33 0 .752.15.977.39.405.436.12 1.172-.48 1.337-.226.06-.482.06-.722.06H20.002c-.21 0-.421 0-.616-.03-.496-.09-.767-.405-.752-.901.015-.496.3-.811.797-.841.495-.03 1.006-.015 1.517-.015 1.773-.03 3.546-.015 5.303-.015ZM26.236 21.038h6.295c.18 0 .375 0 .555.015.466.075.736.345.767.826.014.496-.24.811-.737.917-.18.03-.375.045-.556.045H19.91c-.134 0-.27 0-.39-.015-.556-.06-.886-.406-.886-.902s.36-.841.901-.871c.166-.015.33 0 .511 0 2.058-.015 4.131-.015 6.19-.015ZM26.266 27.798h6.235c.18 0 .375-.015.556.015.495.06.78.36.78.857.016.495-.27.81-.765.886-.18.03-.376.03-.556.03h-12.53c-.931 0-1.352-.285-1.352-.886-.015-.616.406-.902 1.322-.902h6.31ZM26.296 33.087h6.46c.69 0 1.051.27 1.096.796.03.496-.18.826-.675.947-.196.045-.406.045-.617.045H19.97c-.164 0-.345 0-.51-.03-.51-.076-.826-.421-.826-.902.015-.48.345-.826.856-.871.33-.03.676-.015 1.007-.015 1.938.015 3.86.03 5.799.03ZM23.487 39.832h3.65c.722 0 1.112.33 1.097.901-.015.556-.375.887-1.066.887-2.494.015-4.988 0-7.482 0-.466 0-.856-.165-1.007-.646-.12-.39-.015-.766.346-.977.21-.12.496-.165.751-.165 1.232-.015 2.464 0 3.71 0ZM23.456 45.12h3.711c.691 0 1.067.316 1.082.872.015.556-.36.916-1.037.916-2.509.015-5.018.015-7.527 0-.66 0-1.051-.39-1.021-.931.015-.526.39-.841 1.036-.857 1.232-.015 2.494 0 3.756 0ZM38.826 49.417c1.397-1.352 2.749-2.674 4.101-3.996.466-.466.916-.931 1.382-1.397.45-.436.962-.466 1.337-.105.376.36.376.916-.06 1.352-1.983 2.013-3.981 4.026-5.964 6.024-.48.48-.947.48-1.427.015a334.018 334.018 0 0 1-3.26-3.26c-.436-.436-.451-.976-.076-1.352.376-.376.902-.346 1.352.09.887.902 1.758 1.788 2.615 2.63Z" fill="#202020"/></svg>
